;FLAVOR:Marlin
;TIME:720
;Filament used: 0.19904m
;Layer height: 0.2
;MINX:97.871
;MINY:97.87
;MINZ:0.2
;MAXX:122.129
;MAXY:122.13
;MAXZ:13
;Generated with Cura_SteamEngine 4.2.1
M140 S60
M105
M190 S60
M104 S200
M105
M109 S200
M82 ;absolute extrusion mode
M201 X500.00 Y500.00 Z100.00 E5000.00 ;Setup machine max acceleration
M203 X500.00 Y500.00 Z10.00 E50.00 ;Setup machine max feedrate
M204 P500.00 R1000.00 T500.00 ;Setup Print/Retract/Travel acceleration
M205 X8.00 Y8.00 Z0.40 E5.00 ;Setup Jerk
M220 S100 ;Reset Feedrate
M221 S100 ;Reset Flowrate

G28 ;Home

G92 E0 ;Reset Extruder
G1 Z2.0 F3000 ;Move Z Axis up
G1 X10.1 Y20 Z0.28 F5000.0 ;Move to start position
G1 X10.1 Y200.0 Z0.28 F1500.0 E15 ;Draw the first line
G1 X10.4 Y200.0 Z0.28 F5000.0 ;Move to side a little
G1 X10.4 Y20 Z0.28 F1500.0 E30 ;Draw the second line
G92 E0 ;Reset Extruder
G1 Z2.0 F3000 ;Move Z Axis up

G92 E0
G92 E0
G1 F2700 E-5
;LAYER_COUNT:65
;LAYER:0
M107
G0 F6000 X101.852 Y101.049 Z0.2
;TYPE:SKIRT
G1 F2700 E0
G1 F1200 X102.448 Y100.505 E0.02952
G1 X103.094 Y100.023 E0.05901
G1 X103.903 Y99.544 E0.09341
G1 X105.016 Y98.97 E0.13923
G1 X105.75 Y98.637 E0.16871
G1 X106.514 Y98.377 E0.19824
G1 X107.438 Y98.171 E0.23288
G1 X108.672 Y97.97 E0.27862
G1 X109.474 Y97.88 E0.30814
G1 X110.281 Y97.87 E0.33767
G1 X111.211 Y97.958 E0.37185
G1 X112.447 Y98.147 E0.41759
G1 X113.238 Y98.308 E0.44713
G1 X114.008 Y98.547 E0.47662
G1 X114.88 Y98.924 E0.51138
G1 X116.015 Y99.496 E0.55788
G1 X116.717 Y99.894 E0.58741
G1 X117.376 Y100.36 E0.61694
G1 X118.108 Y101.009 E0.65273
G1 X118.991 Y101.892 E0.69841
G1 X119.532 Y102.49 E0.72792
G1 X120.012 Y103.139 E0.75745
G1 X120.489 Y103.956 E0.79206
G1 X121.057 Y105.072 E0.83788
G1 X121.387 Y105.808 E0.86739
G1 X121.643 Y106.573 E0.8969
G1 X121.843 Y107.489 E0.9312
G1 X122.036 Y108.706 E0.97629
G1 X122.122 Y109.508 E1.0058
G1 X122.129 Y110.315 E1.03532
G1 X122.042 Y111.211 E1.06826
G1 X121.853 Y112.447 E1.114
G1 X121.692 Y113.238 E1.14354
G1 X121.453 Y114.008 E1.17303
G1 X121.077 Y114.878 E1.20771
G1 X120.514 Y115.996 E1.25351
G1 X120.116 Y116.698 E1.28303
G1 X119.651 Y117.357 E1.31254
G1 X119.026 Y118.065 E1.34709
G1 X118.148 Y118.951 E1.39273
G1 X117.552 Y119.495 E1.42225
G1 X116.906 Y119.977 E1.45174
G1 X116.097 Y120.456 E1.48613
G1 X114.984 Y121.03 E1.53195
G1 X114.25 Y121.363 E1.56144
G1 X113.486 Y121.623 E1.59097
G1 X112.562 Y121.829 E1.6256
G1 X111.328 Y122.03 E1.67134
G1 X110.526 Y122.12 E1.70087
G1 X109.719 Y122.13 E1.7304
G1 X108.789 Y122.042 E1.76457
G1 X107.553 Y121.853 E1.81032
G1 X106.762 Y121.692 E1.83985
G1 X105.992 Y121.453 E1.86935
G1 X105.12 Y121.076 E1.90411
G1 X103.985 Y120.504 E1.95061
G1 X103.283 Y120.106 E1.98013
G1 X102.624 Y119.64 E2.00966
G1 X101.892 Y118.991 E2.04545
G1 X101.009 Y118.108 E2.09114
G1 X100.468 Y117.51 E2.12064
G1 X99.988 Y116.861 E2.15018
G1 X99.511 Y116.044 E2.18479
G1 X98.943 Y114.928 E2.2306
G1 X98.613 Y114.192 E2.26011
G1 X98.357 Y113.427 E2.28963
G1 X98.157 Y112.511 E2.32393
G1 X97.964 Y111.294 E2.36901
G1 X97.878 Y110.492 E2.39852
G1 X97.871 Y109.685 E2.42805
G1 X97.958 Y108.789 E2.46098
G1 X98.147 Y107.553 E2.50673
G1 X98.308 Y106.762 E2.53626
G1 X98.547 Y105.992 E2.56576
G1 X98.923 Y105.122 E2.60043
G1 X99.486 Y104.004 E2.64623
G1 X99.884 Y103.302 E2.67576
G1 X100.349 Y102.643 E2.70526
G1 X100.974 Y101.935 E2.73982
G1 X101.852 Y101.049 E2.78545
G0 F6000 X102.165 Y101.359
G1 F1200 X102.745 Y100.831 E2.81415
G1 X103.375 Y100.364 E2.84284
G1 X104.105 Y99.935 E2.87382
G1 X105.218 Y99.361 E2.91963
G1 X105.932 Y99.038 E2.9483
G1 X106.676 Y98.789 E2.97701
G1 X107.509 Y98.605 E3.00822
G1 X108.743 Y98.404 E3.05396
G1 X109.523 Y98.318 E3.08267
G1 X110.307 Y98.311 E3.11136
G1 X111.145 Y98.392 E3.14216
G1 X112.381 Y98.581 E3.18791
G1 X113.149 Y98.739 E3.21659
G1 X113.898 Y98.975 E3.24532
G1 X114.682 Y99.317 E3.27662
G1 X115.817 Y99.889 E3.32312
G1 X116.499 Y100.277 E3.35182
G1 X117.138 Y100.733 E3.38055
G1 X117.797 Y101.32 E3.41283
G1 X118.68 Y102.203 E3.45852
G1 X119.206 Y102.786 E3.48725
G1 X119.669 Y103.418 E3.51591
G1 X120.097 Y104.155 E3.54709
G1 X120.665 Y105.271 E3.59291
G1 X120.985 Y105.988 E3.62163
G1 X121.23 Y106.733 E3.65033
G1 X121.408 Y107.558 E3.6812
G1 X121.601 Y108.775 E3.72629
G1 X121.684 Y109.555 E3.75498
G1 X121.688 Y110.34 E3.7837
G1 X121.608 Y111.145 E3.8133
G1 X121.419 Y112.381 E3.85905
G1 X121.261 Y113.149 E3.88773
G1 X121.025 Y113.898 E3.91647
G1 X120.684 Y114.68 E3.94768
G1 X120.121 Y115.798 E3.99347
G1 X119.733 Y116.48 E4.02218
G1 X119.278 Y117.119 E4.05088
G1 X118.713 Y117.755 E4.08201
G1 X117.835 Y118.641 E4.12764
G1 X117.255 Y119.169 E4.15634
G1 X116.625 Y119.636 E4.18503
G1 X115.895 Y120.065 E4.21601
G1 X114.782 Y120.639 E4.26182
G1 X114.068 Y120.962 E4.2905
G1 X113.324 Y121.211 E4.3192
G1 X112.491 Y121.395 E4.35041
G1 X111.257 Y121.596 E4.39615
G1 X110.477 Y121.682 E4.42486
G1 X109.693 Y121.689 E4.45355
G1 X108.855 Y121.608 E4.48435
G1 X107.619 Y121.419 E4.5301
G1 X106.851 Y121.261 E4.55878
G1 X106.102 Y121.025 E4.58751
G1 X105.318 Y120.683 E4.61881
G1 X104.183 Y120.111 E4.66531
G1 X103.501 Y119.723 E4.69401
G1 X102.862 Y119.267 E4.72274
G1 X102.203 Y118.68 E4.75502
G1 X101.32 Y117.797 E4.80071
G1 X100.794 Y117.214 E4.82944
G1 X100.331 Y116.582 E4.8581
G1 X99.903 Y115.845 E4.88928
G1 X99.335 Y114.729 E4.9351
G1 X99.015 Y114.012 E4.96382
G1 X98.77 Y113.267 E4.99252
G1 X98.592 Y112.442 E5.02339
G1 X98.399 Y111.225 E5.06848
G1 X98.316 Y110.445 E5.09717
G1 X98.312 Y109.66 E5.1259
G1 X98.392 Y108.855 E5.15549
G1 X98.581 Y107.619 E5.20124
G1 X98.739 Y106.851 E5.22992
G1 X98.975 Y106.102 E5.25866
G1 X99.316 Y105.32 E5.28987
G1 X99.879 Y104.202 E5.33567
G1 X100.267 Y103.52 E5.36437
G1 X100.722 Y102.881 E5.39307
G1 X101.287 Y102.245 E5.4242
G1 X102.165 Y101.359 E5.46983
G0 F6000 X102.477 Y101.669
G1 F1200 X103.041 Y101.156 E5.49773
G1 X103.656 Y100.706 E5.52561
G1 X104.306 Y100.327 E5.55313
G1 X105.419 Y99.753 E5.59895
G1 X106.114 Y99.439 E5.62685
G1 X106.837 Y99.201 E5.6547
G1 X107.58 Y99.039 E5.68252
G1 X108.814 Y98.838 E5.72827
G1 X109.571 Y98.756 E5.75612
G1 X110.333 Y98.753 E5.784
G1 X111.078 Y98.827 E5.81139
G1 X112.314 Y99.016 E5.85714
G1 X113.06 Y99.171 E5.88502
G1 X113.786 Y99.403 E5.9129
G1 X114.484 Y99.71 E5.9408
G1 X115.619 Y100.282 E5.9873
G1 X116.281 Y100.66 E6.01519
G1 X116.899 Y101.105 E6.04305
G1 X117.486 Y101.631 E6.07189
G1 X118.369 Y102.514 E6.11758
G1 X118.878 Y103.081 E6.14545
G1 X119.326 Y103.697 E6.17332
G1 X119.705 Y104.355 E6.2011
G1 X120.273 Y105.471 E6.24691
G1 X120.583 Y106.167 E6.27479
G1 X120.817 Y106.892 E6.30266
G1 X120.973 Y107.627 E6.33015
G1 X121.166 Y108.844 E6.37523
G1 X121.246 Y109.602 E6.40312
G1 X121.246 Y110.363 E6.43096
G1 X121.173 Y111.078 E6.45726
G1 X120.984 Y112.314 E6.503
G1 X120.829 Y113.06 E6.53088
G1 X120.597 Y113.786 E6.55876
G1 X120.291 Y114.482 E6.58658
G1 X119.728 Y115.6 E6.63238
G1 X119.35 Y116.262 E6.66027
G1 X118.905 Y116.88 E6.68813
G1 X118.401 Y117.445 E6.71583
G1 X117.523 Y118.331 E6.76147
G1 X116.959 Y118.844 E6.78936
G1 X116.344 Y119.294 E6.81724
G1 X115.694 Y119.673 E6.84477
G1 X114.581 Y120.247 E6.89059
G1 X113.886 Y120.561 E6.91849
G1 X113.163 Y120.799 E6.94634
G1 X112.42 Y120.961 E6.97416
G1 X111.186 Y121.162 E7.0199
G1 X110.429 Y121.244 E7.04776
G1 X109.667 Y121.247 E7.07564
G1 X108.922 Y121.173 E7.10303
G1 X107.686 Y120.984 E7.14877
G1 X106.94 Y120.829 E7.17665
G1 X106.214 Y120.597 E7.20453
G1 X105.516 Y120.29 E7.23243
G1 X104.381 Y119.718 E7.27893
G1 X103.719 Y119.34 E7.30682
G1 X103.101 Y118.895 E7.33469
G1 X102.514 Y118.369 E7.36352
G1 X101.631 Y117.486 E7.40921
G1 X101.122 Y116.919 E7.43709
G1 X100.674 Y116.303 E7.46495
G1 X100.295 Y115.645 E7.49273
G1 X99.727 Y114.529 E7.53855
G1 X99.417 Y113.833 E7.56642
G1 X99.183 Y113.108 E7.5943
G1 X99.027 Y112.373 E7.62179
G1 X98.834 Y111.156 E7.66687
G1 X98.754 Y110.398 E7.69475
G1 X98.754 Y109.637 E7.7226
G1 X98.827 Y108.922 E7.74889
G1 X99.016 Y107.686 E7.79464
G1 X99.171 Y106.94 E7.82251
G1 X99.403 Y106.214 E7.8504
G1 X99.709 Y105.518 E7.87822
G1 X100.272 Y104.4 E7.92401
G1 X100.65 Y103.738 E7.9519
G1 X101.095 Y103.12 E7.97976
G1 X101.599 Y102.555 E8.00746
G1 X102.477 Y101.669 E8.0531
G0 F6000 X102.79 Y101.978
G1 F1200 X103.337 Y101.483 E8.08009
G1 X103.935 Y101.049 E8.10712
G1 X104.508 Y100.718 E8.13133
G1 X105.621 Y100.144 E8.17715
G1 X106.295 Y99.841 E8.20419
G1 X106.997 Y99.613 E8.23119
G1 X107.651 Y99.474 E8.25565
G1 X108.885 Y99.273 E8.3014
G1 X109.619 Y99.194 E8.3284
G1 X110.357 Y99.194 E8.35541
G1 X111.012 Y99.262 E8.3795
G1 X112.248 Y99.451 E8.42524
G1 X112.971 Y99.602 E8.45227
G1 X113.673 Y99.831 E8.47928
G1 X114.286 Y100.103 E8.50382
G1 X115.421 Y100.675 E8.55032
G1 X116.062 Y101.042 E8.57734
G1 X116.659 Y101.477 E8.60437
G1 X117.174 Y101.943 E8.62978
G1 X118.057 Y102.826 E8.67546
G1 X118.551 Y103.375 E8.70248
G1 X118.981 Y103.975 E8.72949
G1 X119.313 Y104.555 E8.75394
G1 X119.881 Y105.671 E8.79976
G1 X120.18 Y106.346 E8.82677
G1 X120.404 Y107.049 E8.85376
G1 X120.539 Y107.696 E8.87794
G1 X120.732 Y108.913 E8.92302
G1 X120.808 Y109.647 E8.95002
G1 X120.804 Y110.386 E8.97706
G1 X120.738 Y111.012 E9.00009
G1 X120.549 Y112.248 E9.04584
G1 X120.398 Y112.971 E9.07286
G1 X120.169 Y113.673 E9.09987
G1 X119.898 Y114.284 E9.12433
G1 X119.335 Y115.402 E9.17012
G1 X118.968 Y116.043 E9.19715
G1 X118.534 Y116.64 E9.22415
G1 X118.088 Y117.136 E9.24856
G1 X117.21 Y118.022 E9.29419
G1 X116.663 Y118.517 E9.32118
G1 X116.065 Y118.951 E9.34821
G1 X115.492 Y119.282 E9.37242
G1 X114.379 Y119.856 E9.41824
G1 X113.705 Y120.159 E9.44528
G1 X113.003 Y120.387 E9.47228
G1 X112.349 Y120.526 E9.49674
G1 X111.115 Y120.727 E9.54249
G1 X110.381 Y120.806 E9.5695
G1 X109.643 Y120.806 E9.5965
G1 X108.988 Y120.738 E9.62059
G1 X107.752 Y120.549 E9.66633
G1 X107.029 Y120.398 E9.69336
G1 X106.327 Y120.169 E9.72037
G1 X105.714 Y119.897 E9.74491
G1 X104.579 Y119.325 E9.79141
G1 X103.938 Y118.958 E9.81843
G1 X103.341 Y118.523 E9.84546
G1 X102.826 Y118.057 E9.87087
G1 X101.943 Y117.174 E9.91656
G1 X101.449 Y116.625 E9.94358
G1 X101.019 Y116.025 E9.97058
G1 X100.687 Y115.445 E9.99503
G1 X100.119 Y114.329 E10.04085
G1 X99.82 Y113.654 E10.06786
G1 X99.596 Y112.951 E10.09485
G1 X99.461 Y112.304 E10.11903
G1 X99.268 Y111.087 E10.16411
G1 X99.192 Y110.353 E10.19111
G1 X99.196 Y109.614 E10.21815
G1 X99.262 Y108.988 E10.24118
G1 X99.451 Y107.752 E10.28693
G1 X99.602 Y107.029 E10.31395
G1 X99.831 Y106.327 E10.34096
G1 X100.102 Y105.716 E10.36542
G1 X100.665 Y104.598 E10.41121
G1 X101.032 Y103.957 E10.43824
G1 X101.466 Y103.36 E10.46524
G1 X101.912 Y102.864 E10.48965
G1 X102.79 Y101.978 E10.53528
G0 F6000 X103.102 Y102.288
G1 F1200 X103.633 Y101.81 E10.56142
G1 X104.213 Y101.394 E10.58753
G1 X104.71 Y101.109 E10.6085
G1 X105.823 Y100.535 E10.65431
G1 X106.475 Y100.243 E10.68045
G1 X107.155 Y100.027 E10.70655
G1 X107.721 Y99.908 E10.72771
G1 X108.955 Y99.707 E10.77346
G1 X109.665 Y99.632 E10.79958
G1 X110.38 Y99.636 E10.82574
G1 X110.945 Y99.697 E10.84653
G1 X112.181 Y99.886 E10.89227
G1 X112.88 Y100.034 E10.91841
G1 X113.558 Y100.258 E10.94454
G1 X114.088 Y100.496 E10.96579
G1 X115.223 Y101.068 E11.01229
G1 X115.842 Y101.424 E11.03842
G1 X116.417 Y101.848 E11.06456
G1 X116.863 Y102.254 E11.08662
G1 X117.746 Y103.137 E11.13231
G1 X118.222 Y103.669 E11.15843
G1 X118.636 Y104.251 E11.18456
G1 X118.921 Y104.754 E11.20571
G1 X119.489 Y105.87 E11.25152
G1 X119.777 Y106.524 E11.27767
G1 X119.99 Y107.205 E11.30377
G1 X120.104 Y107.765 E11.32468
G1 X120.297 Y108.982 E11.36977
G1 X120.369 Y109.692 E11.39587
G1 X120.362 Y110.406 E11.422
G1 X120.303 Y110.945 E11.44184
G1 X120.114 Y112.181 E11.48758
G1 X119.966 Y112.88 E11.51372
G1 X119.742 Y113.558 E11.53985
G1 X119.505 Y114.087 E11.56105
G1 X118.942 Y115.205 E11.60685
G1 X118.586 Y115.823 E11.63294
G1 X118.163 Y116.399 E11.65909
G1 X117.776 Y116.826 E11.68017
G1 X116.898 Y117.712 E11.72581
G1 X116.367 Y118.19 E11.75195
G1 X115.787 Y118.606 E11.77806
G1 X115.29 Y118.891 E11.79902
G1 X114.177 Y119.465 E11.84484
G1 X113.525 Y119.757 E11.87098
G1 X112.845 Y119.973 E11.89708
G1 X112.279 Y120.092 E11.91824
G1 X111.045 Y120.293 E11.96398
G1 X110.335 Y120.368 E11.9901
G1 X109.62 Y120.364 E12.01626
G1 X109.055 Y120.303 E12.03706
G1 X107.819 Y120.114 E12.0828
G1 X107.12 Y119.966 E12.10894
G1 X106.442 Y119.742 E12.13507
G1 X105.912 Y119.504 E12.15632
G1 X104.777 Y118.932 E12.20282
G1 X104.158 Y118.576 E12.22895
G1 X103.583 Y118.152 E12.25509
G1 X103.137 Y117.746 E12.27715
G1 X102.254 Y116.863 E12.32284
G1 X101.778 Y116.331 E12.34896
G1 X101.364 Y115.749 E12.37509
G1 X101.079 Y115.246 E12.39624
G1 X100.511 Y114.13 E12.44205
G1 X100.223 Y113.476 E12.4682
G1 X100.01 Y112.795 E12.4943
G1 X99.896 Y112.235 E12.51521
G1 X99.703 Y111.018 E12.56029
G1 X99.631 Y110.308 E12.5864
G1 X99.638 Y109.594 E12.61253
G1 X99.697 Y109.055 E12.63236
G1 X99.886 Y107.819 E12.67811
G1 X100.034 Y107.12 E12.70425
G1 X100.258 Y106.442 E12.73038
G1 X100.495 Y105.913 E12.75158
G1 X101.058 Y104.795 E12.79738
G1 X101.414 Y104.177 E12.82347
G1 X101.837 Y103.601 E12.84962
G1 X102.224 Y103.174 E12.8707
G1 X103.102 Y102.288 E12.91634
G0 F6000 X103.415 Y102.598
G1 F1200 X103.927 Y102.137 E12.94154
G1 X104.49 Y101.739 E12.96677
G1 X104.911 Y101.5 E12.98448
G1 X106.024 Y100.926 E13.0303
G1 X106.654 Y100.646 E13.05552
G1 X107.312 Y100.441 E13.08074
G1 X107.792 Y100.342 E13.09867
G1 X109.026 Y100.141 E13.14441
G1 X109.711 Y100.07 E13.16961
G1 X110.4 Y100.079 E13.19482
G1 X110.879 Y100.132 E13.21245
G1 X112.115 Y100.321 E13.25819
G1 X112.789 Y100.465 E13.28341
G1 X113.442 Y100.685 E13.30862
G1 X113.89 Y100.889 E13.32663
G1 X115.025 Y101.461 E13.37313
G1 X115.622 Y101.806 E13.39836
G1 X116.174 Y102.218 E13.42356
G1 X116.552 Y102.565 E13.44233
G1 X117.435 Y103.448 E13.48802
G1 X117.893 Y103.962 E13.5132
G1 X118.289 Y104.527 E13.53845
G1 X118.529 Y104.954 E13.55637
G1 X119.097 Y106.07 E13.60218
G1 X119.373 Y106.701 E13.62738
G1 X119.575 Y107.36 E13.6526
G1 X119.67 Y107.834 E13.67028
G1 X119.863 Y109.051 E13.71537
G1 X119.931 Y109.736 E13.74055
G1 X119.919 Y110.425 E13.76576
G1 X119.868 Y110.879 E13.78248
G1 X119.679 Y112.115 E13.82822
G1 X119.535 Y112.789 E13.85344
G1 X119.315 Y113.442 E13.87865
G1 X119.112 Y113.889 E13.89661
G1 X118.549 Y115.007 E13.94241
G1 X118.204 Y115.603 E13.9676
G1 X117.792 Y116.155 E13.9928
G1 X117.463 Y116.516 E14.01067
G1 X116.585 Y117.402 E14.05631
G1 X116.073 Y117.863 E14.08152
G1 X115.51 Y118.261 E14.10674
G1 X115.089 Y118.5 E14.12445
G1 X113.976 Y119.074 E14.17027
G1 X113.346 Y119.354 E14.19549
G1 X112.688 Y119.559 E14.22071
G1 X112.208 Y119.658 E14.23864
G1 X110.974 Y119.859 E14.28438
G1 X110.289 Y119.93 E14.30958
G1 X109.6 Y119.921 E14.33479
G1 X109.121 Y119.868 E14.35242
G1 X107.885 Y119.679 E14.39816
G1 X107.211 Y119.535 E14.42338
G1 X106.558 Y119.315 E14.44859
G1 X106.11 Y119.111 E14.4666
G1 X104.975 Y118.539 E14.5131
G1 X104.378 Y118.194 E14.53833
G1 X103.826 Y117.782 E14.56353
G1 X103.448 Y117.435 E14.5823
G1 X102.565 Y116.552 E14.62799
G1 X102.107 Y116.038 E14.65318
G1 X101.711 Y115.473 E14.67842
G1 X101.471 Y115.046 E14.69634
G1 X100.903 Y113.93 E14.74215
G1 X100.627 Y113.299 E14.76735
G1 X100.425 Y112.64 E14.79257
G1 X100.33 Y112.166 E14.81025
G1 X100.137 Y110.949 E14.85534
G1 X100.069 Y110.264 E14.88052
G1 X100.081 Y109.575 E14.90573
G1 X100.132 Y109.121 E14.92245
G1 X100.321 Y107.885 E14.96819
G1 X100.465 Y107.211 E14.99341
G1 X100.685 Y106.558 E15.01862
G1 X100.888 Y106.111 E15.03658
G1 X101.451 Y104.993 E15.08238
G1 X101.796 Y104.397 E15.10757
G1 X102.208 Y103.845 E15.13277
G1 X102.537 Y103.484 E15.15064
G1 X103.415 Y102.598 E15.19628
G0 F6000 X103.727 Y102.908
G1 F1200 X104.222 Y102.466 E15.22056
G1 X104.765 Y102.086 E15.24481
G1 X105.113 Y101.891 E15.2594
G1 X106.226 Y101.317 E15.30522
G1 X106.833 Y101.049 E15.32949
G1 X107.467 Y100.856 E15.35374
G1 X107.863 Y100.777 E15.36851
G1 X109.097 Y100.576 E15.41426
G1 X109.756 Y100.509 E15.43849
G1 X110.419 Y100.521 E15.46275
G1 X110.812 Y100.567 E15.47723
G1 X112.048 Y100.756 E15.52297
G1 X112.697 Y100.896 E15.54726
G1 X113.323 Y101.112 E15.57149
G1 X113.692 Y101.281 E15.58634
