;FLAVOR:Marlin
;TIME:4578
;Filament used: 2.84831m
;Layer height: 0.2
;MINX:68.864
;MINY:68.864
;MINZ:0.2
;MAXX:151.136
;MAXY:151.136
;MAXZ:10
;Generated with Cura_SteamEngine 4.2.1
M140 S60
M105
M190 S60
M104 S200
M105
M109 S200
M82 ;absolute extrusion mode
M201 X500.00 Y500.00 Z100.00 E5000.00 ;Setup machine max acceleration
M203 X500.00 Y500.00 Z10.00 E50.00 ;Setup machine max feedrate
M204 P500.00 R1000.00 T500.00 ;Setup Print/Retract/Travel acceleration
M205 X8.00 Y8.00 Z0.40 E5.00 ;Setup Jerk
M220 S100 ;Reset Feedrate
M221 S100 ;Reset Flowrate

G28 ;Home

G92 E0 ;Reset Extruder
G1 Z2.0 F3000 ;Move Z Axis up
G1 X10.1 Y20 Z0.28 F5000.0 ;Move to start position
G1 X10.1 Y200.0 Z0.28 F1500.0 E15 ;Draw the first line
G1 X10.4 Y200.0 Z0.28 F5000.0 ;Move to side a little
G1 X10.4 Y20 Z0.28 F1500.0 E30 ;Draw the second line
G92 E0 ;Reset Extruder
G1 Z2.0 F3000 ;Move Z Axis up

G92 E0
G92 E0
G1 F2700 E-5
;LAYER_COUNT:50
;LAYER:0
M107
G0 F6000 X80.729 Y81.095 Z0.2
;TYPE:SKIRT
G1 F2700 E0
G1 F1200 X81.309 Y80.535 E0.0295
G1 X81.711 Y80.206 E0.0485
G1 X88.547 Y74.962 E0.36372
G1 X89.21 Y74.504 E0.3932
G1 X89.916 Y74.113 E0.42273
G1 X90.386 Y73.9 E0.4416
G1 X98.342 Y70.605 E0.75666
G1 X99.102 Y70.334 E0.78618
G1 X99.885 Y70.139 E0.8157
G1 X100.393 Y70.056 E0.83453
G1 X108.936 Y68.93 E1.14979
G1 X109.74 Y68.864 E1.17931
G1 X110.547 Y68.878 E1.20884
G1 X111.064 Y68.93 E1.22785
G1 X119.607 Y70.056 E1.54311
G1 X120.4 Y70.201 E1.5726
G1 X121.176 Y70.423 E1.60213
G1 X121.658 Y70.605 E1.62098
G1 X129.614 Y73.9 E1.93603
G1 X130.343 Y74.246 E1.96556
G1 X131.034 Y74.661 E1.99505
G1 X131.453 Y74.962 E2.01392
G1 X138.289 Y80.206 E2.32914
G1 X138.904 Y80.729 E2.35867
G1 X139.465 Y81.309 E2.3882
G1 X139.793 Y81.71 E2.40715
G1 X145.038 Y88.547 E2.72242
G1 X145.497 Y89.211 E2.75195
G1 X145.888 Y89.917 E2.78148
G1 X146.101 Y90.388 E2.80039
G1 X149.395 Y98.343 E3.1154
G1 X149.666 Y99.103 E3.14492
G1 X149.861 Y99.885 E3.1744
G1 X149.944 Y100.393 E3.19324
G1 X151.07 Y108.936 E3.50849
G1 X151.136 Y109.74 E3.53801
G1 X151.122 Y110.547 E3.56754
G1 X151.07 Y111.064 E3.58655
G1 X149.944 Y119.607 E3.90181
G1 X149.799 Y120.4 E3.9313
G1 X149.577 Y121.176 E3.96083
G1 X149.395 Y121.657 E3.97965
G1 X146.101 Y129.612 E4.29465
G1 X145.756 Y130.341 E4.32416
G1 X145.34 Y131.033 E4.3537
G1 X145.038 Y131.453 E4.37263
G1 X139.793 Y138.29 E4.68789
G1 X139.271 Y138.905 E4.71741
G1 X138.691 Y139.465 E4.7469
G1 X138.289 Y139.794 E4.76591
G1 X131.453 Y145.038 E5.08112
G1 X130.79 Y145.496 E5.11061
G1 X130.084 Y145.887 E5.14013
G1 X129.614 Y146.1 E5.15901
G1 X121.658 Y149.395 E5.47407
G1 X120.898 Y149.666 E5.50359
G1 X120.115 Y149.861 E5.53311
G1 X119.607 Y149.944 E5.55194
G1 X111.064 Y151.07 E5.8672
G1 X110.26 Y151.136 E5.89671
G1 X109.453 Y151.122 E5.92624
G1 X108.936 Y151.07 E5.94525
G1 X100.393 Y149.944 E6.26051
G1 X99.6 Y149.799 E6.29001
G1 X98.824 Y149.577 E6.31954
G1 X98.342 Y149.395 E6.33839
G1 X90.386 Y146.1 E6.65344
G1 X89.657 Y145.754 E6.68296
G1 X88.966 Y145.339 E6.71245
G1 X88.547 Y145.038 E6.73133
G1 X81.711 Y139.794 E7.04655
G1 X81.096 Y139.271 E7.07608
G1 X80.535 Y138.691 E7.1056
G1 X80.207 Y138.29 E7.12456
G1 X74.962 Y131.453 E7.43982
G1 X74.503 Y130.789 E7.46936
G1 X74.112 Y130.083 E7.49888
G1 X73.899 Y129.612 E7.5178
G1 X70.605 Y121.657 E7.8328
G1 X70.334 Y120.897 E7.86232
G1 X70.139 Y120.115 E7.89181
G1 X70.056 Y119.607 E7.91064
G1 X68.93 Y111.064 E8.2259
G1 X68.864 Y110.26 E8.25541
G1 X68.878 Y109.453 E8.28494
G1 X68.93 Y108.936 E8.30395
G1 X70.056 Y100.393 E8.61921
G1 X70.201 Y99.6 E8.64871
G1 X70.423 Y98.824 E8.67824
G1 X70.605 Y98.343 E8.69705
G1 X73.899 Y90.388 E9.01206
G1 X74.244 Y89.659 E9.04157
G1 X74.66 Y88.967 E9.07111
G1 X74.962 Y88.547 E9.09003
G1 X80.207 Y81.71 E9.4053
G1 X80.729 Y81.095 E9.43481
G0 F6000 X81.064 Y81.381
G1 F1200 X81.631 Y80.838 E9.46354
G1 X81.978 Y80.556 E9.4799
G1 X88.814 Y75.312 E9.79511
G1 X89.46 Y74.866 E9.82383
G1 X90.148 Y74.489 E9.85253
G1 X90.555 Y74.307 E9.86885
G1 X98.511 Y71.012 E10.1839
G1 X99.25 Y70.749 E10.2126
G1 X100.012 Y70.563 E10.2413
G1 X100.451 Y70.492 E10.25757
G1 X108.994 Y69.366 E10.57282
G1 X109.776 Y69.303 E10.60153
G1 X110.56 Y69.32 E10.63022
G1 X111.006 Y69.366 E10.64662
G1 X119.549 Y70.492 E10.96188
G1 X120.321 Y70.634 E10.9906
G1 X121.074 Y70.854 E11.0193
G1 X121.489 Y71.012 E11.03555
G1 X129.445 Y74.307 E11.3506
G1 X130.154 Y74.644 E11.37932
G1 X130.825 Y75.051 E11.40804
G1 X131.186 Y75.312 E11.42433
G1 X138.022 Y80.556 E11.73955
G1 X138.619 Y81.064 E11.76823
G1 X139.162 Y81.631 E11.79695
G1 X139.444 Y81.978 E11.81331
G1 X144.689 Y88.815 E12.12858
G1 X145.135 Y89.461 E12.1573
G1 X145.512 Y90.149 E12.186
G1 X145.694 Y90.556 E12.20231
G1 X148.988 Y98.511 E12.51732
G1 X149.251 Y99.25 E12.54602
G1 X149.437 Y100.013 E12.57475
G1 X149.508 Y100.451 E12.59098
G1 X150.634 Y108.994 E12.90624
G1 X150.697 Y109.776 E12.93495
G1 X150.68 Y110.56 E12.96364
G1 X150.634 Y111.006 E12.98004
G1 X149.508 Y119.549 E13.2953
G1 X149.366 Y120.321 E13.32402
G1 X149.146 Y121.074 E13.35272
G1 X148.988 Y121.489 E13.36896
G1 X145.694 Y129.444 E13.68397
G1 X145.357 Y130.153 E13.71269
G1 X144.95 Y130.823 E13.74137
G1 X144.689 Y131.185 E13.7577
G1 X139.444 Y138.022 E14.07297
G1 X138.936 Y138.619 E14.10165
G1 X138.369 Y139.162 E14.13037
G1 X138.022 Y139.444 E14.14673
G1 X131.186 Y144.688 E14.46194
G1 X130.54 Y145.134 E14.49066
G1 X129.852 Y145.511 E14.51937
G1 X129.445 Y145.693 E14.53568
G1 X121.489 Y148.988 E14.85073
G1 X120.75 Y149.251 E14.87943
G1 X119.988 Y149.437 E14.90813
G1 X119.549 Y149.508 E14.9244
G1 X111.006 Y150.634 E15.23966
G1 X110.224 Y150.697 E15.26836
G1 X109.44 Y150.68 E15.29705
G1 X108.994 Y150.634 E15.31346
G1 X100.451 Y149.508 E15.62871
G1 X99.679 Y149.366 E15.65743
G1 X98.926 Y149.146 E15.68613
G1 X98.511 Y148.988 E15.70238
G1 X90.555 Y145.693 E16.01744
G1 X89.846 Y145.356 E16.04616
G1 X89.175 Y144.949 E16.07487
G1 X88.814 Y144.688 E16.09117
G1 X81.978 Y139.444 E16.40638
G1 X81.381 Y138.936 E16.43506
G1 X80.838 Y138.369 E16.46378
G1 X80.556 Y138.022 E16.48014
G1 X75.311 Y131.185 E16.79541
G1 X74.865 Y130.539 E16.82413
G1 X74.488 Y129.851 E16.85283
G1 X74.306 Y129.444 E16.86914
G1 X71.012 Y121.489 E17.18415
G1 X70.749 Y120.75 E17.21285
G1 X70.563 Y119.987 E17.24158
G1 X70.492 Y119.549 E17.25782
G1 X69.366 Y111.006 E17.57308
G1 X69.303 Y110.224 E17.60178
G1 X69.32 Y109.44 E17.63047
G1 X69.366 Y108.994 E17.64687
G1 X70.492 Y100.451 E17.96213
G1 X70.634 Y99.679 E17.99085
G1 X70.854 Y98.926 E18.01955
G1 X71.012 Y98.511 E18.0358
G1 X74.306 Y90.556 E18.35081
G1 X74.643 Y89.847 E18.37953
G1 X75.05 Y89.177 E18.40821
G1 X75.311 Y88.815 E18.42453
G1 X80.556 Y81.978 E18.7398
G1 X81.064 Y81.381 E18.76848
G0 F6000 X81.4 Y81.667
G1 F1200 X82.246 Y80.905 E18.81014
G1 X89.082 Y75.661 E19.12535
G1 X89.71 Y75.229 E19.15324
G1 X90.723 Y74.713 E19.19483
G1 X98.679 Y71.418 E19.50989
G1 X99.397 Y71.164 E19.53775
G1 X100.508 Y70.928 E19.57931
G1 X109.051 Y69.802 E19.89457
G1 X109.811 Y69.742 E19.92246
G1 X110.949 Y69.802 E19.96415
G1 X119.492 Y70.928 E20.27941
G1 X120.241 Y71.067 E20.30728
G1 X121.321 Y71.418 E20.34883
G1 X129.277 Y74.713 E20.66388
G1 X129.965 Y75.042 E20.69178
G1 X130.918 Y75.661 E20.73336
G1 X137.754 Y80.905 E21.04858
G1 X138.333 Y81.399 E21.07642
G1 X139.095 Y82.246 E21.1181
G1 X144.34 Y89.083 E21.43337
G1 X144.772 Y89.711 E21.46126
G1 X145.288 Y90.724 E21.50285
G1 X148.582 Y98.679 E21.81786
G1 X148.836 Y99.398 E21.84576
G1 X149.072 Y100.508 E21.88728
G1 X150.198 Y109.051 E22.20253
G1 X150.258 Y109.811 E22.23043
G1 X150.198 Y110.949 E22.27212
G1 X149.072 Y119.492 E22.58738
G1 X148.933 Y120.241 E22.61525
G1 X148.582 Y121.321 E22.6568
G1 X145.288 Y129.276 E22.9718
G1 X144.96 Y129.963 E22.99966
G1 X144.34 Y130.917 E23.04128
G1 X139.095 Y137.754 E23.35655
G1 X138.6 Y138.333 E23.38442
G1 X137.754 Y139.095 E23.42608
G1 X130.918 Y144.339 E23.74129
G1 X130.29 Y144.771 E23.76918
G1 X129.277 Y145.287 E23.81077
G1 X121.321 Y148.582 E24.12583
G1 X120.603 Y148.836 E24.15369
G1 X119.492 Y149.072 E24.19525
G1 X110.949 Y150.198 E24.5105
G1 X110.189 Y150.258 E24.5384
G1 X109.051 Y150.198 E24.58009
G1 X100.508 Y149.072 E24.89535
G1 X99.759 Y148.933 E24.92322
G1 X98.679 Y148.582 E24.96477
G1 X90.723 Y145.287 E25.27982
G1 X90.035 Y144.958 E25.30772
G1 X89.082 Y144.339 E25.3493
G1 X82.246 Y139.095 E25.66451
G1 X81.667 Y138.601 E25.69236
G1 X80.905 Y137.754 E25.73404
G1 X75.66 Y130.917 E26.04931
G1 X75.228 Y130.289 E26.0772
G1 X74.712 Y129.276 E26.11879
G1 X71.418 Y121.321 E26.4338
G1 X71.164 Y120.602 E26.4617
G1 X70.928 Y119.492 E26.50321
G1 X69.802 Y110.949 E26.81847
G1 X69.742 Y110.189 E26.84637
G1 X69.802 Y109.051 E26.88806
G1 X70.928 Y100.508 E27.20332
G1 X71.067 Y99.759 E27.23119
G1 X71.418 Y98.679 E27.27274
G1 X74.712 Y90.724 E27.58774
G1 X75.04 Y90.037 E27.6156
G1 X75.66 Y89.083 E27.65722
G1 X80.905 Y82.246 E27.97249
G1 X81.4 Y81.667 E28.00036
G0 F6000 X81.734 Y81.953
G1 F1200 X82.514 Y81.254 E28.03868
G1 X89.35 Y76.01 E28.35389
G1 X89.959 Y75.593 E28.3809
G1 X90.891 Y75.12 E28.41914
G1 X98.847 Y71.825 E28.73419
G1 X99.544 Y71.58 E28.76122
G1 X100.566 Y71.364 E28.79944
G1 X109.109 Y70.238 E29.1147
G1 X109.845 Y70.182 E29.1417
G1 X110.891 Y70.238 E29.18003
G1 X119.434 Y71.364 E29.49528
G1 X120.16 Y71.5 E29.52231
G1 X121.153 Y71.825 E29.56053
G1 X129.109 Y75.12 E29.87559
G1 X129.774 Y75.439 E29.90257
G1 X130.65 Y76.01 E29.94083
G1 X137.486 Y81.254 E30.25605
G1 X138.047 Y81.734 E30.28306
G1 X138.746 Y82.514 E30.32138
G1 X143.991 Y89.351 E30.63664
G1 X144.408 Y89.96 E30.66365
G1 X144.881 Y90.893 E30.70192
G1 X148.175 Y98.848 E31.01693
G1 X148.42 Y99.544 E31.04392
G1 X148.636 Y100.566 E31.08214
G1 X149.762 Y109.109 E31.3974
G1 X149.818 Y109.845 E31.4244
G1 X149.762 Y110.891 E31.46273
G1 X148.636 Y119.434 E31.77799
G1 X148.5 Y120.16 E31.80501
G1 X148.175 Y121.152 E31.8432
G1 X144.881 Y129.107 E32.15821
G1 X144.562 Y129.773 E32.18523
G1 X143.991 Y130.649 E32.22348
G1 X138.746 Y137.486 E32.53875
G1 X138.266 Y138.047 E32.56576
G1 X137.486 Y138.746 E32.60408
G1 X130.65 Y143.99 E32.9193
G1 X130.041 Y144.407 E32.9463
G1 X129.109 Y144.88 E32.98454
G1 X121.153 Y148.175 E33.29959
G1 X120.456 Y148.42 E33.32662
G1 X119.434 Y148.636 E33.36484
G1 X110.891 Y149.762 E33.6801
G1 X110.155 Y149.818 E33.70711
G1 X109.109 Y149.762 E33.74543
G1 X100.566 Y148.636 E34.06069
G1 X99.84 Y148.5 E34.08771
G1 X98.847 Y148.175 E34.12594
G1 X90.891 Y144.88 E34.44099
G1 X90.226 Y144.561 E34.46798
G1 X89.35 Y143.99 E34.50623
G1 X82.514 Y138.746 E34.82145
G1 X81.953 Y138.266 E34.84846
G1 X81.254 Y137.486 E34.88678
G1 X76.009 Y130.649 E35.20205
G1 X75.592 Y130.04 E35.22905
G1 X75.119 Y129.107 E35.26732
G1 X71.825 Y121.152 E35.58233
G1 X71.58 Y120.456 E35.60933
G1 X71.364 Y119.434 E35.64754
G1 X70.238 Y110.891 E35.9628
G1 X70.182 Y110.155 E35.98981
G1 X70.238 Y109.109 E36.02813
G1 X71.364 Y100.566 E36.34339
G1 X71.5 Y99.84 E36.37041
G1 X71.825 Y98.848 E36.40861
G1 X75.119 Y90.893 E36.72361
G1 X75.438 Y90.227 E36.75063
G1 X76.009 Y89.351 E36.78889
G1 X81.254 Y82.514 E37.10415
G1 X81.734 Y81.953 E37.13117
G0 F6000 X82.069 Y82.24
G1 F1200 X82.782 Y81.603 E37.16615
G1 X89.618 Y76.359 E37.48136
G1 X90.208 Y75.957 E37.50748
G1 X91.06 Y75.527 E37.5424
G1 X99.016 Y72.232 E37.85745
G1 X99.69 Y71.996 E37.88358
G1 X100.623 Y71.801 E37.91845
G1 X109.166 Y70.675 E38.23371
G1 X109.878 Y70.621 E38.25984
G1 X110.834 Y70.675 E38.29487
G1 X119.377 Y71.801 E38.61013
G1 X120.078 Y71.934 E38.63623
G1 X120.984 Y72.232 E38.67113
G1 X128.94 Y75.527 E38.98618
G1 X129.584 Y75.836 E39.01231
G1 X130.382 Y76.359 E39.04722
G1 X137.218 Y81.603 E39.36244
G1 X137.76 Y82.069 E39.38859
G1 X138.397 Y82.782 E39.42357
G1 X143.642 Y89.619 E39.73884
G1 X144.044 Y90.209 E39.76496
G1 X144.475 Y91.061 E39.79989
G1 X147.769 Y99.016 E40.1149
G1 X148.004 Y99.69 E40.14101
G1 X148.199 Y100.623 E40.17588
G1 X149.325 Y109.166 E40.49114
G1 X149.379 Y109.878 E40.51727
G1 X149.325 Y110.834 E40.5523
G1 X148.199 Y119.377 E40.86756
G1 X148.066 Y120.078 E40.89366
G1 X147.769 Y120.984 E40.92854
G1 X144.475 Y128.939 E41.24355
G1 X144.165 Y129.582 E41.26967
G1 X143.642 Y130.381 E41.30461
G1 X138.397 Y137.218 E41.61987
G1 X137.931 Y137.76 E41.64602
G1 X137.218 Y138.397 E41.681
G1 X130.382 Y143.641 E41.99622
G1 X129.792 Y144.043 E42.02234
G1 X128.94 Y144.473 E42.05726
G1 X120.984 Y147.768 E42.37231
G1 X120.31 Y148.004 E42.39844
G1 X119.377 Y148.199 E42.43331
G1 X110.834 Y149.325 E42.74857
G1 X110.122 Y149.379 E42.77469
G1 X109.166 Y149.325 E42.80973
G1 X100.623 Y148.199 E43.12498
G1 X99.922 Y148.066 E43.15109
G1 X99.016 Y147.768 E43.18598
G1 X91.06 Y144.473 E43.50104
G1 X90.416 Y144.164 E43.52717
G1 X89.618 Y143.641 E43.56208
G1 X82.782 Y138.397 E43.87729
G1 X82.24 Y137.931 E43.90345
G1 X81.603 Y137.218 E43.93843
G1 X76.358 Y130.381 E44.25369
G1 X75.956 Y129.791 E44.27981
G1 X75.525 Y128.939 E44.31475
G1 X72.231 Y120.984 E44.62975
G1 X71.996 Y120.31 E44.65587
G1 X71.801 Y119.377 E44.69074
G1 X70.675 Y110.834 E45.006
G1 X70.621 Y110.122 E45.03212
G1 X70.675 Y109.166 E45.06716
G1 X71.801 Y100.623 E45.38241
G1 X71.934 Y99.922 E45.40852
G1 X72.231 Y99.016 E45.4434
G1 X75.525 Y91.061 E45.75841
G1 X75.835 Y90.418 E45.78453
G1 X76.358 Y89.619 E45.81946
G1 X81.603 Y82.782 E46.13473
G1 X82.069 Y82.24 E46.16088
G0 F6000 X82.402 Y82.528
G1 F1200 X83.05 Y81.952 E46.1926
G1 X89.886 Y76.708 E46.50782
G1 X90.456 Y76.321 E46.53302
G1 X91.228 Y75.933 E46.56463
G1 X99.184 Y72.638 E46.87969
G1 X99.835 Y72.412 E46.9049
G1 X100.681 Y72.237 E46.93651
G1 X109.224 Y71.111 E47.25177
G1 X109.911 Y71.061 E47.27697
G1 X110.776 Y71.111 E47.30867
G1 X119.319 Y72.237 E47.62393
G1 X119.996 Y72.366 E47.64914
G1 X120.816 Y72.638 E47.68075
G1 X128.772 Y75.933 E47.99581
G1 X129.392 Y76.233 E48.021
G1 X130.114 Y76.708 E48.05262
G1 X136.95 Y81.952 E48.36784
G1 X137.472 Y82.402 E48.39305
G1 X138.048 Y83.049 E48.42475
G1 X143.293 Y89.886 E48.74001
G1 X143.68 Y90.457 E48.76525
G1 X144.068 Y91.229 E48.79686
G1 X147.362 Y99.184 E49.11187
G1 X147.588 Y99.835 E49.13708
G1 X147.763 Y100.681 E49.16869
G1 X148.889 Y109.224 E49.48395
G1 X148.939 Y109.911 E49.50915
G1 X148.889 Y110.776 E49.54085
G1 X147.763 Y119.319 E49.85611
G1 X147.634 Y119.996 E49.88132
G1 X147.362 Y120.816 E49.91293
G1 X144.068 Y128.771 E50.22794
G1 X143.768 Y129.391 E50.25314
G1 X143.293 Y130.114 E50.28479
G1 X138.048 Y136.951 E50.60005
G1 X137.598 Y137.472 E50.62524
G1 X136.95 Y138.048 E50.65696
G1 X130.114 Y143.292 E50.97218
G1 X129.544 Y143.679 E50.99738
G1 X128.772 Y144.067 E51.02899
G1 X120.816 Y147.362 E51.34405
G1 X120.165 Y147.588 E51.36926
G1 X119.319 Y147.763 E51.40087
G1 X110.776 Y148.889 E51.71613
G1 X110.089 Y148.939 E51.74133
G1 X109.224 Y148.889 E51.77303
G1 X100.681 Y147.763 E52.08829
G1 X100.004 Y147.634 E52.1135
G1 X99.184 Y147.362 E52.14511
G1 X91.228 Y144.067 E52.46016
G1 X90.608 Y143.767 E52.48536
G1 X89.886 Y143.292 E52.51698
G1 X83.05 Y138.048 E52.8322
G1 X82.528 Y137.598 E52.85741
G1 X81.952 Y136.951 E52.88911
G1 X76.707 Y130.114 E53.20437
G1 X76.32 Y129.543 E53.22961
G1 X75.932 Y128.771 E53.26122
G1 X72.638 Y120.816 E53.57623
G1 X72.412 Y120.165 E53.60144
G1 X72.237 Y119.319 E53.63305
G1 X71.111 Y110.776 E53.94831
G1 X71.061 Y110.089 E53.97351
G1 X71.111 Y109.224 E54.00521
G1 X72.237 Y100.681 E54.32046
G1 X72.366 Y100.004 E54.34568
G1 X72.638 Y99.184 E54.37729
G1 X75.932 Y91.229 E54.69229
G1 X76.232 Y90.609 E54.71749
G1 X76.707 Y89.886 E54.74914
G1 X81.952 Y83.049 E55.06441
G1 X82.402 Y82.528 E55.0896
G0 F6000 X82.736 Y82.817
G1 F1200 X83.317 Y82.301 E55.11803
G1 X90.153 Y77.057 E55.43324
G1 X90.703 Y76.686 E55.45752
G1 X91.397 Y76.34 E55.48589
G1 X99.353 Y73.045 E55.80094
G1 X99.979 Y72.828 E55.82518
G1 X100.738 Y72.673 E55.85352
G1 X109.281 Y71.547 E56.16878
G1 X109.943 Y71.5 E56.19306
G1 X110.719 Y71.547 E56.22151
G1 X119.262 Y72.673 E56.53677
G1 X119.913 Y72.799 E56.56103
G1 X120.647 Y73.045 E56.58935
G1 X128.603 Y76.34 E56.9044
G1 X129.2 Y76.63 E56.92869
G1 X129.847 Y77.057 E56.95705
G1 X136.683 Y82.301 E57.27226
G1 X137.183 Y82.736 E57.29651
G1 X137.699 Y83.317 E57.32494
G1 X142.944 Y90.154 E57.64021
G1 X143.315 Y90.704 E57.66448
