;FLAVOR:Marlin
;TIME:438
;Filament used: 0.28715m
;Layer height: 0.2
;MINX:85.541
;MINY:95.911
;MINZ:0.2
;MAXX:134.07
;MAXY:124.089
;MAXZ:1.4
;Generated with Cura_SteamEngine 4.2.1
M140 S60
M105
M190 S60
M104 S200
M105
M109 S200
M82 ;absolute extrusion mode
M201 X500.00 Y500.00 Z100.00 E5000.00 ;Setup machine max acceleration
M203 X500.00 Y500.00 Z10.00 E50.00 ;Setup machine max feedrate
M204 P500.00 R1000.00 T500.00 ;Setup Print/Retract/Travel acceleration
M205 X8.00 Y8.00 Z0.40 E5.00 ;Setup Jerk
M220 S100 ;Reset Feedrate
M221 S100 ;Reset Flowrate

G28 ;Home

G92 E0 ;Reset Extruder
G1 Z2.0 F3000 ;Move Z Axis up
G1 X10.1 Y20 Z0.28 F5000.0 ;Move to start position
G1 X10.1 Y200.0 Z0.28 F1500.0 E15 ;Draw the first line
G1 X10.4 Y200.0 Z0.28 F5000.0 ;Move to side a little
G1 X10.4 Y20 Z0.28 F1500.0 E30 ;Draw the second line
G92 E0 ;Reset Extruder
G1 Z2.0 F3000 ;Move Z Axis up

G92 E0
G92 E0
G1 F2700 E-5
;LAYER_COUNT:7
;LAYER:0
M107
G0 F6000 X90.858 Y99.014 Z0.2
;TYPE:SKIRT
G1 F2700 E0
G1 F1200 X91.294 Y98.644 E0.02092
G1 X91.788 Y98.332 E0.0423
G1 X92.473 Y97.965 E0.07073
G1 X92.532 Y97.934 E0.07317
G1 X93.977 Y97.19 E0.13263
G1 X94.034 Y97.161 E0.13497
G1 X94.676 Y96.843 E0.16118
G1 X95.206 Y96.625 E0.18215
G1 X95.769 Y96.482 E0.2034
G1 X96.529 Y96.345 E0.23166
G1 X96.593 Y96.334 E0.23403
G1 X98.203 Y96.07 E0.29372
G1 X98.26 Y96.061 E0.29583
G1 X98.963 Y95.956 E0.32184
G1 X99.534 Y95.911 E0.34279
G1 X100.123 Y95.949 E0.36439
G1 X100.893 Y96.054 E0.39282
G1 X100.957 Y96.063 E0.39518
G1 X102.622 Y96.317 E0.4568
G1 X102.674 Y96.325 E0.45873
G1 X103.308 Y96.43 E0.48224
G1 X103.751 Y96.529 E0.49885
G1 X104.07 Y96.619 E0.51098
G1 X104.198 Y96.657 E0.51586
G1 X130.18 Y104.906 E1.5132
G1 X130.239 Y104.926 E1.51548
G1 X130.927 Y105.156 E1.54202
G1 X131.582 Y105.44 E1.56814
G1 X131.888 Y105.606 E1.58088
G1 X132.371 Y105.914 E1.60183
G1 X132.806 Y106.285 E1.62275
G1 X133.185 Y106.714 E1.6437
G1 X133.501 Y107.191 E1.66463
G1 X133.748 Y107.708 E1.68559
G1 X133.975 Y108.522 E1.71651
G1 X134.006 Y108.704 E1.72326
G1 X134.064 Y109.353 E1.7471
G1 X134.07 Y109.984 E1.77019
G1 X134.07 Y110.061 E1.77301
G1 X134.063 Y110.811 E1.80045
G1 X134.018 Y111.382 E1.8214
G1 X133.893 Y111.941 E1.84236
G1 X133.692 Y112.476 E1.86327
G1 X133.419 Y112.979 E1.88421
G1 X133.078 Y113.439 E1.90516
G1 X132.676 Y113.847 E1.92611
G1 X131.978 Y114.343 E1.95744
G1 X131.691 Y114.505 E1.9695
G1 X130.986 Y114.82 E1.99775
G1 X130.144 Y115.104 E2.03026
G1 X130.075 Y115.127 E2.03292
G1 X104.571 Y123.225 E3.01192
G1 X104.516 Y123.242 E3.01403
G1 X103.851 Y123.443 E3.03944
G1 X103.42 Y123.548 E3.05567
G1 X103.089 Y123.61 E3.06799
G1 X102.952 Y123.633 E3.07308
G1 X100.911 Y123.944 E3.14861
G1 X100.849 Y123.953 E3.1509
G1 X100.133 Y124.051 E3.17734
G1 X99.562 Y124.089 E3.19828
G1 X98.975 Y124.045 E3.21982
G1 X98.234 Y123.935 E3.24722
G1 X98.174 Y123.925 E3.24945
G1 X96.555 Y123.66 E3.30947
G1 X96.497 Y123.65 E3.31162
G1 X95.785 Y123.523 E3.33808
G1 X95.23 Y123.384 E3.35902
G1 X94.684 Y123.16 E3.38061
G1 X93.992 Y122.817 E3.40887
G1 X93.937 Y122.79 E3.41111
G1 X92.489 Y122.045 E3.47068
G1 X92.438 Y122.018 E3.4728
G1 X91.807 Y121.682 E3.49895
G1 X91.322 Y121.378 E3.51989
G1 X90.868 Y120.995 E3.54162
G1 X90.329 Y120.468 E3.5692
G1 X90.287 Y120.427 E3.57135
G1 X89.091 Y119.224 E3.63341
G1 X89.052 Y119.184 E3.63546
G1 X88.608 Y118.725 E3.65882
G1 X88.24 Y118.286 E3.67978
G1 X87.941 Y117.811 E3.70031
G1 X87.568 Y117.115 E3.7292
G1 X87.526 Y117.034 E3.73254
G1 X86.762 Y115.529 E3.79429
G1 X86.735 Y115.474 E3.79654
G1 X86.445 Y114.881 E3.82069
G1 X86.23 Y114.351 E3.84161
G1 X86.088 Y113.782 E3.86307
G1 X85.964 Y113.068 E3.88958
G1 X85.954 Y113.005 E3.89192
G1 X85.682 Y111.281 E3.95577
G1 X85.673 Y111.223 E3.95792
G1 X85.582 Y110.587 E3.98142
G1 X85.541 Y110.016 E4.00237
G1 X85.582 Y109.429 E4.0239
G1 X85.689 Y108.676 E4.05172
G1 X85.698 Y108.612 E4.05409
G1 X85.961 Y106.951 E4.11561
G1 X85.97 Y106.898 E4.11758
G1 X86.083 Y106.24 E4.14201
G1 X86.219 Y105.684 E4.16295
G1 X86.439 Y105.137 E4.18452
G1 X86.777 Y104.444 E4.21273
G1 X86.806 Y104.386 E4.2151
G1 X87.568 Y102.884 E4.27672
G1 X87.592 Y102.836 E4.27868
G1 X87.888 Y102.271 E4.30202
G1 X88.189 Y101.784 E4.32297
G1 X88.546 Y101.352 E4.34347
G1 X89.085 Y100.784 E4.37212
G1 X89.152 Y100.714 E4.37566
G1 X90.324 Y99.536 E4.43646
G1 X90.365 Y99.496 E4.43855
G1 X90.858 Y99.014 E4.46378
G0 F6000 X91.165 Y99.329
G1 F1200 X91.579 Y98.981 E4.48357
G1 X91.996 Y98.72 E4.50156
G1 X92.681 Y98.353 E4.53
G1 X92.734 Y98.325 E4.53219
G1 X94.179 Y97.581 E4.59165
G1 X94.229 Y97.555 E4.59371
G1 X94.871 Y97.237 E4.61993
G1 X95.372 Y97.034 E4.6397
G1 X95.847 Y96.915 E4.65762
G1 X96.607 Y96.778 E4.68587
G1 X96.664 Y96.768 E4.68799
G1 X98.274 Y96.504 E4.74768
G1 X98.325 Y96.496 E4.74957
G1 X99.028 Y96.391 E4.77557
G1 X99.568 Y96.351 E4.79538
G1 X100.064 Y96.385 E4.81357
G1 X100.834 Y96.49 E4.84201
G1 X100.891 Y96.498 E4.84411
G1 X102.556 Y96.752 E4.90573
G1 X102.602 Y96.759 E4.90743
G1 X103.236 Y96.864 E4.93095
G1 X103.632 Y96.953 E4.9458
G1 X103.951 Y97.043 E4.95792
G1 X104.065 Y97.077 E4.96227
G1 X130.047 Y105.326 E5.95961
G1 X130.099 Y105.343 E5.96162
G1 X130.787 Y105.573 E5.98816
G1 X131.372 Y105.827 E6.01149
G1 X131.678 Y105.993 E6.02423
G1 X132.133 Y106.285 E6.04401
G1 X132.54 Y106.641 E6.06379
G1 X132.89 Y107.053 E6.08357
G1 X133.176 Y107.513 E6.10338
G1 X133.39 Y108.009 E6.12315
G1 X133.541 Y108.595 E6.14529
G1 X133.572 Y108.777 E6.15204
G1 X133.624 Y109.357 E6.17335
G1 X133.63 Y109.988 E6.19644
G1 X133.63 Y110.057 E6.19896
G1 X133.623 Y110.807 E6.2264
G1 X133.578 Y111.346 E6.24619
G1 X133.454 Y111.872 E6.26596
G1 X133.254 Y112.375 E6.28576
G1 X132.982 Y112.842 E6.30554
G1 X132.644 Y113.264 E6.32532
G1 X132.248 Y113.632 E6.3451
G1 X131.762 Y113.96 E6.36655
G1 X131.475 Y114.122 E6.37861
G1 X130.846 Y114.403 E6.40381
G1 X130.004 Y114.687 E6.43632
G1 X129.942 Y114.707 E6.4387
G1 X104.438 Y122.805 E7.4177
G1 X104.389 Y122.82 E7.41958
G1 X103.724 Y123.021 E7.445
G1 X103.339 Y123.115 E7.4595
G1 X103.008 Y123.177 E7.47182
G1 X102.885 Y123.198 E7.47638
G1 X100.844 Y123.509 E7.55192
G1 X100.789 Y123.517 E7.55395
G1 X100.073 Y123.615 E7.58039
G1 X99.534 Y123.649 E7.60015
G1 X99.04 Y123.609 E7.61828
G1 X98.299 Y123.499 E7.64569
G1 X98.245 Y123.491 E7.64769
G1 X96.626 Y123.226 E7.70771
G1 X96.574 Y123.217 E7.70964
G1 X95.862 Y123.09 E7.7361
G1 X95.338 Y122.956 E7.75589
G1 X94.88 Y122.766 E7.77403
G1 X94.188 Y122.423 E7.80228
G1 X94.139 Y122.399 E7.80428
G1 X92.691 Y121.654 E7.86386
G1 X92.645 Y121.63 E7.86576
G1 X92.014 Y121.294 E7.89191
G1 X91.557 Y121.005 E7.91169
G1 X91.175 Y120.68 E7.93004
G1 X90.636 Y120.153 E7.95762
G1 X90.599 Y120.116 E7.95954
G1 X89.403 Y118.913 E8.0216
G1 X89.368 Y118.878 E8.02341
G1 X88.924 Y118.419 E8.04678
G1 X88.578 Y118.003 E8.06657
G1 X88.329 Y117.603 E8.08381
G1 X87.956 Y116.907 E8.1127
G1 X87.918 Y116.835 E8.11568
G1 X87.154 Y115.33 E8.17743
G1 X87.13 Y115.281 E8.17943
G1 X86.84 Y114.688 E8.20358
G1 X86.639 Y114.186 E8.22336
G1 X86.522 Y113.706 E8.24144
G1 X86.398 Y112.992 E8.26795
G1 X86.389 Y112.936 E8.27002
G1 X86.117 Y111.212 E8.33388
G1 X86.109 Y111.16 E8.3358
G1 X86.018 Y110.524 E8.35931
G1 X85.981 Y109.985 E8.37908
G1 X86.017 Y109.491 E8.3972
G1 X86.124 Y108.738 E8.42502
G1 X86.133 Y108.681 E8.42713
G1 X86.396 Y107.02 E8.48866
G1 X86.404 Y106.973 E8.49041
G1 X86.517 Y106.315 E8.51483
G1 X86.647 Y105.79 E8.53462
G1 X86.834 Y105.33 E8.55279
G1 X87.172 Y104.637 E8.581
G1 X87.198 Y104.585 E8.58312
G1 X87.96 Y103.083 E8.64474
G1 X87.982 Y103.041 E8.64648
G1 X88.278 Y102.476 E8.66981
G1 X88.564 Y102.016 E8.68963
G1 X88.865 Y101.655 E8.70683
G1 X89.404 Y101.087 E8.73548
G1 X89.464 Y101.025 E8.73863
G1 X90.636 Y99.847 E8.79943
G1 X90.672 Y99.811 E8.80129
G1 X91.165 Y99.329 E8.82652
G0 F6000 X91.473 Y99.644
G1 F1200 X91.862 Y99.319 E8.84506
G1 X92.203 Y99.108 E8.85973
G1 X92.888 Y98.741 E8.88816
G1 X92.935 Y98.716 E8.89011
G1 X94.38 Y97.972 E8.94957
G1 X94.425 Y97.95 E8.95141
G1 X95.067 Y97.632 E8.97762
G1 X95.538 Y97.443 E8.99619
G1 X95.925 Y97.348 E9.01077
G1 X96.685 Y97.211 E9.03902
G1 X96.735 Y97.202 E9.04088
G1 X98.345 Y96.938 E9.10057
G1 X98.39 Y96.931 E9.10223
G1 X99.093 Y96.826 E9.12824
G1 X99.599 Y96.791 E9.1468
G1 X100.004 Y96.821 E9.16165
G1 X100.774 Y96.926 E9.19009
G1 X100.825 Y96.933 E9.19197
G1 X102.49 Y97.187 E9.25359
G1 X102.53 Y97.193 E9.25507
G1 X103.164 Y97.298 E9.27858
G1 X103.512 Y97.376 E9.29163
G1 X103.831 Y97.466 E9.30376
G1 X103.931 Y97.496 E9.30758
G1 X129.913 Y105.745 E10.30492
G1 X129.96 Y105.76 E10.30672
G1 X130.648 Y105.99 E10.33326
G1 X131.162 Y106.214 E10.35378
G1 X131.468 Y106.38 E10.36651
G1 X131.894 Y106.656 E10.38508
G1 X132.27 Y106.995 E10.40361
G1 X132.589 Y107.39 E10.42218
G1 X132.842 Y107.829 E10.44072
G1 X133.023 Y108.303 E10.45928
G1 X133.107 Y108.669 E10.47302
G1 X133.138 Y108.851 E10.47978
G1 X133.184 Y109.361 E10.49851
G1 X133.19 Y109.992 E10.5216
G1 X133.19 Y110.053 E10.52383
G1 X133.183 Y110.803 E10.55127
G1 X133.138 Y111.308 E10.56982
G1 X133.015 Y111.8 E10.58837
G1 X132.816 Y112.267 E10.60695
G1 X132.546 Y112.696 E10.62549
G1 X132.212 Y113.078 E10.64406
G1 X131.822 Y113.402 E10.66261
G1 X131.546 Y113.577 E10.67456
G1 X131.259 Y113.739 E10.68662
G1 X130.705 Y113.986 E10.70881
G1 X129.863 Y114.27 E10.74132
G1 X129.808 Y114.288 E10.74344
G1 X104.304 Y122.386 E11.72244
G1 X104.262 Y122.399 E11.72405
G1 X103.597 Y122.6 E11.74946
G1 X103.258 Y122.683 E11.76223
G1 X102.927 Y122.745 E11.77455
G1 X102.819 Y122.763 E11.77856
G1 X100.778 Y123.074 E11.85409
G1 X100.73 Y123.081 E11.85587
G1 X100.014 Y123.179 E11.88231
G1 X99.507 Y123.208 E11.90089
G1 X99.104 Y123.174 E11.91569
G1 X98.363 Y123.064 E11.94309
G1 X98.316 Y123.057 E11.94483
G1 X96.697 Y122.792 E12.00485
G1 X96.652 Y122.784 E12.00652
G1 X95.94 Y122.657 E12.03299
G1 X95.449 Y122.529 E12.05155
G1 X95.075 Y122.372 E12.06639
G1 X94.383 Y122.029 E12.09465
G1 X94.34 Y122.007 E12.09641
G1 X92.892 Y121.262 E12.15599
G1 X92.852 Y121.241 E12.15764
G1 X92.221 Y120.905 E12.1838
G1 X91.793 Y120.632 E12.20237
G1 X91.483 Y120.365 E12.21734
G1 X90.944 Y119.838 E12.24492
G1 X90.911 Y119.806 E12.2466
G1 X89.715 Y118.603 E12.30866
G1 X89.685 Y118.572 E12.31024
G1 X89.241 Y118.113 E12.33361
G1 X88.918 Y117.722 E12.35216
G1 X88.717 Y117.395 E12.36621
G1 X88.344 Y116.699 E12.3951
G1 X88.311 Y116.636 E12.3977
G1 X87.547 Y115.131 E12.45945
G1 X87.525 Y115.088 E12.46122
G1 X87.235 Y114.495 E12.48537
G1 X87.049 Y114.023 E12.50393
G1 X86.955 Y113.631 E12.51868
G1 X86.831 Y112.917 E12.54519
G1 X86.823 Y112.868 E12.54701
G1 X86.551 Y111.144 E12.61086
G1 X86.544 Y111.098 E12.61256
G1 X86.453 Y110.462 E12.63607
G1 X86.421 Y109.956 E12.65462
G1 X86.453 Y109.553 E12.66941
G1 X86.56 Y108.8 E12.69723
G1 X86.568 Y108.749 E12.69912
G1 X86.831 Y107.088 E12.76065
G1 X86.837 Y107.047 E12.76217
G1 X86.95 Y106.389 E12.78659
G1 X87.075 Y105.897 E12.80516
G1 X87.23 Y105.522 E12.82001
G1 X87.568 Y104.829 E12.84822
G1 X87.59 Y104.784 E12.85005
G1 X88.352 Y103.282 E12.91167
G1 X88.372 Y103.245 E12.91321
G1 X88.668 Y102.68 E12.93655
G1 X88.938 Y102.25 E12.95512
G1 X89.184 Y101.958 E12.96909
G1 X89.723 Y101.39 E12.99774
G1 X89.776 Y101.335 E13.00053
G1 X90.948 Y100.157 E13.06133
G1 X90.98 Y100.126 E13.06296
G1 X91.473 Y99.644 E13.08818
G1 F2700 E8.08818
;MESH:temp_pen.stl
G0 F6000 X89.477 Y106.713
G0 X88.957 Y110
G0 X89.477 Y113.287
G0 X90.983 Y116.254
G0 X93.329 Y118.613
G0 X96.287 Y120.134
G0 X98.455 Y120.491
G0 X98.825 Y118.228
;TYPE:WALL-INNER
G1 F2700 E13.08818
G1 F1200 X100.435 Y118.228 E13.14709
G1 X103.049 Y110 E13.46295
G1 X100.435 Y101.772 E13.7788
G1 X98.825 Y101.772 E13.83771
G1 X96.212 Y110 E14.15355
G1 X98.825 Y118.228 E14.4694
G1 F2700 E9.4694
G0 F6000 X98.455 Y120.491
G0 X99.57 Y120.673
G0 X102.808 Y120.18
G0 X129.918 Y111.571
G0 X130.633 Y111.164
G0 X130.625 Y108.826
G0 X130.032 Y108.499
G0 X128.907 Y108.107
G0 X128.373 Y109.789
G1 F2700 E14.4694
G1 F1200 X128.87 Y109.946 E14.48847
G1 X128.87 Y110.054 E14.49242
G1 X128.373 Y110.211 E14.50463
G1 X102.405 Y118.457 E15.50144
G1 X99.581 Y118.888 E15.60596
G1 X96.846 Y118.439 E15.70736
G1 X94.382 Y117.171 E15.80875
G1 X92.429 Y115.208 E15.91006
G1 X91.178 Y112.74 E16.01129
G1 X90.744 Y110 E16.11278
G1 X91.178 Y107.26 E16.21428
G1 X92.429 Y104.792 E16.31551
G1 X94.382 Y102.829 E16.41682
G1 X96.846 Y101.561 E16.51821
G1 X99.581 Y101.112 E16.61961
G1 X102.405 Y101.543 E16.72412
G1 X128.373 Y109.789 E17.72094
G0 F6000 X129.308 Y109.624
G1 F1200 X129.312 Y110.375 E17.74842
G1 X102.503 Y118.887 E18.77751
G1 X99.579 Y119.333 E18.88572
G1 X96.707 Y118.862 E18.9922
G1 X94.119 Y117.53 E19.09869
G1 X92.069 Y115.469 E19.20505
G1 X90.753 Y112.875 E19.31147
G1 X90.298 Y110 E19.41796
G1 X90.753 Y107.125 E19.52445
G1 X92.069 Y104.531 E19.63087
G1 X94.119 Y102.47 E19.73723
G1 X96.707 Y101.138 E19.84372
G1 X99.579 Y100.667 E19.9502
G1 X102.503 Y101.113 E20.05841
G1 X129.308 Y109.624 E21.08735
G1 F2700 E16.08735
G0 F6000 X129.709 Y108.362
G0 X130.625 Y108.826
G0 X130.633 Y111.164
G0 X129.918 Y111.571
G0 X102.808 Y120.18
G0 X99.57 Y120.673
G0 X98.699 Y120.531
G0 X99.147 Y117.788
G1 F2700 E21.08735
G1 F1200 X100.113 Y117.788 E21.12269
G1 X102.587 Y110 E21.42166
G1 X100.113 Y102.212 E21.72062
G1 X99.147 Y102.212 E21.75596
G1 X96.674 Y110 E22.05492
G1 X99.147 Y117.788 E22.35387
G0 F6000 X99.469 Y117.348
;TYPE:WALL-OUTER
G1 F1200 X99.791 Y117.348 E22.36565
G1 X99.847 Y117.172 E22.37241
G1 X102.125 Y110 E22.64772
G1 X99.847 Y102.828 E22.92303
G1 X99.791 Y102.652 E22.92979
G1 X99.469 Y102.652 E22.94157
G1 X99.414 Y102.828 E22.94745
G1 X97.136 Y110 E23.22277
G1 X99.414 Y117.172 E23.49808
G1 X99.469 Y117.348 E23.50396
G1 F2700 E18.50396
G0 F6000 X99.63 Y115.022
G0 X99.681 Y115.009
G0 X129.695 Y108.42
G0 X129.815 Y108.395
G0 X129.547 Y109.239
G1 F2700 E23.50396
G1 F1200 X129.747 Y109.348 E23.5123
G1 X129.753 Y110.65 E23.55993
G1 X129.565 Y110.756 E23.56783
G1 X102.601 Y119.317 E24.60287
G1 X99.577 Y119.778 E24.71478
G1 X96.568 Y119.285 E24.82634
G1 X93.856 Y117.889 E24.93793
G1 X91.709 Y115.73 E25.04933
G1 X90.328 Y113.01 E25.16093
G1 X89.852 Y110 E25.27243
G1 X90.328 Y106.99 E25.38392
G1 X91.709 Y104.27 E25.49553
G1 X93.856 Y102.111 E25.60692
G1 X96.568 Y100.715 E25.71852
G1 X99.577 Y100.222 E25.83008
G1 X102.601 Y100.683 E25.94199
G1 X129.547 Y109.239 E26.97634
G0 F6000 X127.618 Y110
;TYPE:SKIN
G1 F1200 X102.304 Y118.038 E27.94806
G1 X100.878 Y118.256 E28.00083
G1 X103.5 Y110 E28.31776
G1 X100.878 Y101.744 E28.63468
G1 X102.304 Y101.962 E28.68746
G1 X127.618 Y110 E29.65917
G1 F2700 E24.65917
G0 F6000 X128.283 Y107.908
G0 X102.808 Y99.82
G0 X99.57 Y99.327
G0 X98.028 Y99.58
G0 X98.382 Y101.744
G1 F2700 E29.65917
G1 F1200 X95.761 Y110 E29.97608
G1 X98.382 Y118.256 E30.29299
G1 X96.986 Y118.027 E30.34475
G1 X94.637 Y116.818 E30.4414
G1 X92.781 Y114.952 E30.53769
G1 X91.592 Y112.606 E30.63392
G1 X91.178 Y110 E30.73046
G1 X91.592 Y107.394 E30.82699
G1 X92.781 Y105.048 E30.92322
G1 X94.637 Y103.182 E31.01951
G1 X96.986 Y101.973 E31.11617
G1 X98.382 Y101.744 E31.16792
G1 F2700 E26.16792
G0 F6000 X98.028 Y99.58
G0 X96.287 Y99.866
G0 X93.329 Y101.387
G0 X90.983 Y103.746
G0 X89.477 Y106.713
G0 X88.957 Y110
G0 X89.477 Y113.287
G0 X90.983 Y116.254
G0 X93.329 Y118.613
G0 X93.969 Y118.943
G0 X95.054 Y116.833
G1 F2700 E31.16792
G1 F1200 X92.777 Y114.556 E31.28574
G0 F6000 X92.138 Y113.295
G1 F1200 X96.336 Y117.492 E31.50292
G0 F6000 X97.377 Y117.911
G1 F1200 X91.713 Y112.247 E31.79598
G0 F6000 X91.595 Y111.507
G1 F1200 X98.121 Y118.033 E32.13364
G0 F6000 X97.84 Y117.13
G1 F1200 X91.477 Y110.767 E32.46286
G0 F6000 X91.36 Y110.027
G1 F1200 X97.551 Y116.218 E32.78319
G0 F6000 X97.261 Y115.306
G1 F1200 X91.438 Y109.483 E33.08447
G0 F6000 X91.522 Y108.946
G1 F1200 X96.971 Y114.395 E33.36641
G0 F6000 X96.682 Y113.482
G1 F1200 X91.608 Y108.409 E33.62891
G0 F6000 X91.694 Y107.872
G1 F1200 X96.392 Y112.571 E33.87202
G0 F6000 X96.103 Y111.659
G1 F1200 X91.805 Y107.361 E34.0944
G0 F6000 X92.014 Y106.948
G1 F1200 X95.813 Y110.747 E34.29096
G0 F6000 X95.603 Y109.915
G1 F1200 X92.223 Y106.535 E34.46584
G0 F6000 X92.432 Y106.122
